_includes/icons/ios-compact-camera.svg

<svg fill="#666" height="50" viewBox="0 0 50 50" width="50" xmlns="http://www.w3.org/2000/svg"><path d="m17 5c-.820312 0-1.398437.5-1.8125.96875-.414062.46875-.75 1-1.0625 1.5s-.597656.96875-.84375 1.25c-.183594.210938-.304687.269531-.3125.28125h-9.96875c-1.644531 0-3 1.355469-3 3v27c0 1.644531 1.355469 3 3 3h44c1.644531 0 3-1.355469 3-3v-27c0-1.644531-1.355469-3-3-3h-9.96875c.003906.003906-.007812 0-.03125 0-.03125-.023437-.121094-.097656-.28125-.28125-.246094-.28125-.53125-.75-.84375-1.25s-.648437-1.03125-1.0625-1.5c-.414062-.46875-.992187-.96875-1.8125-.96875zm0 2h16c-.0625 0 .066406 0 .3125.28125s.53125.75.84375 1.25.65625 1.03125 1.0625 1.5.960938.96875 1.78125.96875h10c.5625 0 1 .4375 1 1v27c0 .5625-.4375 1-1 1h-44c-.5625 0-1-.4375-1-1v-27c0-.5625.4375-1 1-1h10c.820313 0 1.375-.5 1.78125-.96875s.75-1 1.0625-1.5.597656-.96875.84375-1.25.375-.28125.3125-.28125zm8 4c-7.167969 0-13 5.832031-13 13s5.832031 13 13 13 13-5.832031 13-13-5.832031-13-13-13zm0 2c6.085938 0 11 4.914063 11 11 0 6.085938-4.914062 11-11 11-6.085937 0-11-4.914062-11-11 0-6.085937 4.914063-11 11-11zm-17 1c-1.105469 0-2 .894531-2 2s.894531 2 2 2h1c1.105469 0 2-.894531 2-2s-.894531-2-2-2zm17 1c-4.957031 0-9 4.042969-9 9s4.042969 9 9 9 9-4.042969 9-9-4.042969-9-9-9zm0 2c3.878906 0 7 3.121094 7 7s-3.121094 7-7 7-7-3.121094-7-7 3.121094-7 7-7z"/></svg>

<svg xmlns="http://www.w3.org/2000/svg" viewBox="0 0 50 50" width="50" height="50" fill="#666"><path d="M 17 5 C 16.179688 5 15.601563 5.5 15.1875 5.96875 C 14.773438 6.4375 14.4375 6.96875 14.125 7.46875 C 13.8125 7.96875 13.527344 8.4375 13.28125 8.71875 C 13.097656 8.929688 12.976563 8.988281 12.96875 9 L 3 9 C 1.355469 9 0 10.355469 0 12 L 0 39 C 0 40.644531 1.355469 42 3 42 L 47 42 C 48.644531 42 50 40.644531 50 39 L 50 12 C 50 10.355469 48.644531 9 47 9 L 37.03125 9 C 37.035156 9.003906 37.023438 9 37 9 C 36.96875 8.976563 36.878906 8.902344 36.71875 8.71875 C 36.472656 8.4375 36.1875 7.96875 35.875 7.46875 C 35.5625 6.96875 35.226563 6.4375 34.8125 5.96875 C 34.398438 5.5 33.820313 5 33 5 Z M 17 7 L 33 7 C 32.9375 7 33.066406 7 33.3125 7.28125 C 33.558594 7.5625 33.84375 8.03125 34.15625 8.53125 C 34.46875 9.03125 34.8125 9.5625 35.21875 10.03125 C 35.625 10.5 36.179688 11 37 11 L 47 11 C 47.5625 11 48 11.4375 48 12 L 48 39 C 48 39.5625 47.5625 40 47 40 L 3 40 C 2.4375 40 2 39.5625 2 39 L 2 12 C 2 11.4375 2.4375 11 3 11 L 13 11 C 13.820313 11 14.375 10.5 14.78125 10.03125 C 15.1875 9.5625 15.53125 9.03125 15.84375 8.53125 C 16.15625 8.03125 16.441406 7.5625 16.6875 7.28125 C 16.933594 7 17.0625 7 17 7 Z M 25 11 C 17.832031 11 12 16.832031 12 24 C 12 31.167969 17.832031 37 25 37 C 32.167969 37 38 31.167969 38 24 C 38 16.832031 32.167969 11 25 11 Z M 25 13 C 31.085938 13 36 17.914063 36 24 C 36 30.085938 31.085938 35 25 35 C 18.914063 35 14 30.085938 14 24 C 14 17.914063 18.914063 13 25 13 Z M 8 14 C 6.894531 14 6 14.894531 6 16 C 6 17.105469 6.894531 18 8 18 L 9 18 C 10.105469 18 11 17.105469 11 16 C 11 14.894531 10.105469 14 9 14 Z M 25 15 C 20.042969 15 16 19.042969 16 24 C 16 28.957031 20.042969 33 25 33 C 29.957031 33 34 28.957031 34 24 C 34 19.042969 29.957031 15 25 15 Z M 25 17 C 28.878906 17 32 20.121094 32 24 C 32 27.878906 28.878906 31 25 31 C 21.121094 31 18 27.878906 18 24 C 18 20.121094 21.121094 17 25 17 Z"/></svg>
